X:250
T:Waltz
C:No 250 Wm Clarke of Feltwell
M:3/8
L:1/16
K:D
3(ABc)| cAFADA| dAfAdA| eAGAEA| eAgAeA| dAFADA| dAfAdA| ba^ga=ge| d8:||:
afdfaf| afd'afa| gecege|gebgeg| afdfaf| afd'afa|gecABc| d8:!D.C.!||

